!!!COM: Bach, Johann Sebastian
!!!CDT: 1685/3//-1750/7/28/
!!!OTL@@DE: Wie schoen leuchtet der Morgenstern
!!!OTL@EN: How bright appears the morning star
!!!AGN: 4-Part Chorale
!!!SCT: BH 323
!!!SCT: BWV 172
**harm	**root	**kern	**kern	**kern	**kern
!	!	!bass	!tenor	!alto	!soprno
*	*Iorgan	*Iorgan	*Iorgan	*Iorgan	*Iorgan
*M4/4	*M4/4	*M4/4	*M4/4	*M4/4	*M4/4
*met(c)	*met(c)	*met(c)	*met(c)	*met(c)	*met(c)
*MM56	*MM56	*MM56	*MM56	*MM56	*MM56
*k[f#c#g#d#a#]	*k[f#c#g#d#a#]	*k[f#c#g#d#a#]	*k[f#c#g#d#a#]	*k[f#c#g#d#a#]	*k[f#c#g#d#a#]
*B:	*B:	*B:	*B:	*B:	*B:
*>[A,A,B]	*>[A,A,B]	*>[A,A,B]	*>[A,A,B]	*>[A,A,B]	*>[A,A,B]
*>A	*>A	*>A	*>A	*>A	*>A
I	4FF	4B	4d#	4f#	4b
=1	=1	=1	=1	=1	=1
Vb	4CC	4A#	4c#	4f#	8ff#
.	.	.	.	.	8ee
I	8FF	8B	8B	4f#	8dd#
Vb	8CC	8A#	8c#	.	8cc#
vi	4DD	4G#	8d#	8g#	4b
.	.	.	8e	8a#	.
Ib	4FF	4D#	4f#	4b	4ff#
=2	=2	=2	=2	=2	=2
IV	4BB-	8E	8f#	4b	4gg#
.	.	8F#	16e	.	.
.	.	.	16d#	.	.
IVb	4BB-	8G#	8e	4b	4gg#
.	.	8A#	8e	.	.
I;	4FF;	4B;	4d#;	4b;	4ff#;
Vb	4CC	4A#	4f#	4cc#	4ff#
=3	=3	=3	=3	=3	=3
vib	4DD	4B	4f#	4dd#	4gg#
v/iii	4EE	4c#	4e#	4cc#	4aa#
Ib	8FF	8d#	8f#	8b	4bb
V7b/V	8GG	8e#	8g#	8cc#	.
V	8CC	8f#	8a#	4cc#	4aa#
Vb	8CC	8A#	8c#	.	.
=4	=4	=4	=4	=4	=4
vib	4DD	8B	8d#	4b	4gg#
.	.	8G#	8g#	.	.
V7/V	4GG	4c#	4e#	4b	4gg#
V;	4CC;	4F#;	4f#;	4a#;	4ff#;
I	4FF	4B	4f#	4b	4dd#
=5	=5	=5	=5	=5	=5
IV	4BB-	4E	8e	4b	4gg#
.	.	.	8d#	.	.
V	4CC	4F#	4c#	4a#	4ff#
IVb	8BB-	8G#	8g#	8b	4ee
V7b	8CC	8A#	8f#	8cc#	.
I	4FF	8B	4f#	4b	4dd#
.	.	8E	.	.	.
=6	=6	=6	=6	=6	=6
V	2CC	2F#	2f#	4b	2cc#
.	.	.	.	4a#	.
I;	4FF;	4BB;	4f#;	4b;	4b;
=:|!	=:|!	=:|!	=:|!	=:|!	=:|!
*>B	*>B	*>B	*>B	*>B	*>B
r	4r	4r	4r	4r	4r
=7	=7	=7	=7	=7	=7
Vb	2CC	2A#	2f#	2cc#	2ff#
I;	2FF;	2B;	2f#;	2dd#;	2dd#;
=8	=8	=8	=8	=8	=8
V	2CC	2F#	2f#	2cc#	2ff#
I;	2FF;	2BB;	2f#;	2b;	2dd#;
!!linebreak: 2
=9	=9	=9	=9	=9	=9
I	4FF	8BB	4f#	4b	4dd#
.	.	8C#	.	.	.
Ib	4FF	8D#	4f#	4b	4dd#
.	.	8E	.	.	.
V	4CC	8F#	4f#	8a#	4cc#
.	.	8G#	.	8g#	.
Vb	4CC	8A#	8f#	4f#	4cc#
.	.	8F#	8e	.	.
=10	=10	=10	=10	=10	=10
I	4FF	8B	8d#	4f#	4dd#
.	.	8c#	8e	.	.
Ib	4FF	8d#	4f#	8f#	4dd#
.	.	8e	.	8g#	.
V	4CC	8f#	4f#	4a#	4cc#
.	.	8e	.	.	.
Vc	4CC	8d#	4f#	4a#	4cc#
.	.	8c#	.	.	.
=11	=11	=11	=11	=11	=11
I	4FF	8B	4f#	4b	4dd#
.	.	8A#	.	.	.
vi	4DD	8G#	4g#	4b	4dd#
.	.	8F#	.	.	.
ii7b	4GG	8E	4g#	4b	2cc#
.	.	8C#	.	.	.
V	4CC	4F#	8f#	4a#	.
.	.	.	8e	.	.
=12	=12	=12	=12	=12	=12
I;	2FF;	2BB;	2d#;	2b;	2b;
vi	4DD	8GG#	8g#	4dd#	4bb
.	.	8BB	8f#	.	.
viiob	4EE	8C#	4e	4cc#	4aa#
.	.	8D#	.	.	.
=13	=13	=13	=13	=13	=13
IV	4BB-	4E	8e	4b	4gg#
.	.	.	8d#	.	.
V	4CC	4F#	4c#	4a#	4ff#
IVb	4BB-	8G#	8B	4g#	4ee
.	.	8A#	8c#	.	.
I	8FF	8B	8d#	4f#	4dd#
Ib	8FF	8D#	8f#	.	.
=14	=14	=14	=14	=14	=14
iib	4GG	8E	8.e	4g#	2cc#
.	.	8C#	.	.	.
.	.	.	16d#	.	.
V	4CC	4F#	4c#	4f#	.
I;	4FF;	4BB;	4d#;	4f#;	4b;
==	==	==	==	==	==
*-	*-	*-	*-	*-	*-
!!chor2scor: -l 2 -o %b.pmx
!!!YEC: Copyright 1994, David Huron
!!!YEC: Changes/Additions 2001 by Craig Stuart Sapp
!!!YEN: United States of America
!!!SMA: 371 Bach Chorales, edited by Ludwig Erk, C.F. Peters
!!!PDT: 1850, 1865
!!!ONB: Harmony and Root analysis done manually
